X: 37262
T: Skelton's
R: hornpipe
M: 4/4
K: Dmajor
|:e|f>ed>c d>AF>A|f>ed>c d>AF>A|(3GBd g>d e>dc>d|(3efe (3dcB A>^ga>=g|
f>ed>c d>AF>A|f>ed>c d>^ab>=a|g>fe>d c>AB>c|e>dd>c d3:|
|:d|~e2c>d e>aa>g|f>Ad>e ~f3e|g>fg>a b>ag>f|(3efe (3dcB (3ABA (3GFE|
D>FA>d f>ef>a|g>fg>a b2a>g|f>Ad>f e>Ac>e|d2d>c d3:|

